svg/logback.svg

<svg viewBox="0 0 20 20" xmlns="http://www.w3.org/2000/svg">
<rect width="100%" height="100%" fill="#069C02"/>
<path fill-rule="evenodd" clip-rule="evenodd" d="M5.42865 5.13245C5.42746 5.11801 5.42686 5.10344 5.42686 5.08875C5.42686 4.17712 7.72611 3.75 9.86174 3.75C11.9908 3.75 14.2805 4.17241 14.2944 5.0804L14.2989 5.0802C14.2989 5.0945 14.2998 5.12791 14.3012 5.17839L14.3012 5.17935C14.3039 5.27966 14.3083 5.44678 14.3112 5.6647C15.0473 5.70031 16.505 5.91371 16.7213 7.02672C16.8842 7.86043 16.7582 8.60696 16.374 9.20466C17.756 9.90723 18.5 10.813 18.5 11.7931C18.5 13.9734 14.7664 15.6798 10 15.6798C5.23362 15.6798 1.5 13.9798 1.5 11.7931C1.5 10.4148 2.99315 9.18513 5.50848 8.48138C5.36647 6.92599 5.41452 5.44469 5.42865 5.13245ZM5.93872 5.7549C6.73757 6.20933 8.34664 6.42538 9.86174 6.42538C11.3892 6.42538 12.9993 6.20905 13.7924 5.75153C13.8173 7.6127 13.6525 11.0282 12.6542 11.8802C12.6457 11.8887 11.7383 12.7472 9.99155 12.8365C9.90802 12.8407 9.82433 12.8407 9.7408 12.8365C8.0208 12.7487 7.1168 11.9168 7.0672 11.8712L7.06542 11.8696C6.08646 11.0275 5.91686 7.61669 5.93872 5.7549ZM15.7055 9.91247C15.8269 9.82236 15.9386 9.72524 16.0404 9.62159C17.2887 10.239 17.9751 11.0044 17.9751 11.7931C17.9751 13.6143 14.3222 15.1549 10 15.1549C5.67775 15.1549 2.02487 13.6143 2.03337 11.7931C2.03337 10.696 3.37288 9.64371 5.56443 9.01166C5.67815 9.95432 5.87073 10.8787 6.19176 11.5422C5.40017 11.9192 4.96795 12.4135 4.96795 12.9491C4.96795 14.1646 7.1312 15.0741 9.99995 15.0741C12.8687 15.0741 15.0319 14.1646 15.0319 12.9576C15.0319 12.3676 14.5179 11.8361 13.5755 11.4473C13.6678 11.2412 13.7488 11.0133 13.8199 10.7697C14.5083 10.643 15.156 10.349 15.7055 9.91247ZM13.3217 11.9112C13.2267 12.0514 13.1228 12.172 13.009 12.2691L13.0075 12.2705C12.9971 12.2803 12.9507 12.3238 12.8683 12.3884C12.8268 12.7171 12.6979 13.0297 12.4938 13.2931C12.2577 13.5977 11.9327 13.8213 11.5639 13.933C11.0503 14.0823 10.5197 14.1652 9.98502 14.1795L9.86177 14.1773H9.73852C9.20177 14.1647 8.66892 14.0825 8.15327 13.933C7.78778 13.822 7.46557 13.6007 7.23083 13.2994C7.02346 13.0332 6.89333 12.7161 6.85327 12.3827C6.76401 12.3123 6.715 12.265 6.7063 12.2563C6.61954 12.1824 6.53848 12.0944 6.46275 11.9943C5.8439 12.2788 5.49495 12.6218 5.49495 12.9491C5.49495 13.7014 7.34582 14.5386 9.99995 14.5386C12.6541 14.5386 14.5049 13.7205 14.5049 12.9576C14.5049 12.5938 14.0674 12.2102 13.3217 11.9112ZM14.312 6.44529C14.313 6.35848 14.3136 6.27456 14.3139 6.1939C14.8692 6.22703 16.0624 6.38468 16.207 7.12659C16.4004 8.12322 16.1114 8.96047 15.3931 9.48959C14.9711 9.82663 14.4832 10.0688 13.9627 10.2017C13.9894 10.0786 14.014 9.95324 14.0369 9.82613C14.4522 9.72197 14.849 9.55332 15.2128 9.32597C15.8609 8.92859 16.1095 8.29959 15.9756 7.40284C15.9226 7.05635 15.6331 6.49092 14.312 6.44529ZM14.1666 8.93696C14.1542 9.04348 14.1408 9.14986 14.1264 9.25575C14.292 9.20351 14.4536 9.13939 14.61 9.06392C14.463 9.01872 14.3152 8.97639 14.1666 8.93696ZM14.2203 8.40671C14.5444 8.48986 14.865 8.58608 15.1813 8.69513C15.4584 8.41721 15.5451 8.03182 15.4614 7.48147C15.4171 7.18127 14.9895 6.9926 14.3016 6.96912C14.2887 7.41415 14.2642 7.90557 14.2203 8.40671ZM10.0192 13.3613C10.9721 13.3117 11.6989 13.0579 12.1972 12.8075C12.1615 12.8736 12.1202 12.9368 12.0735 12.9966C11.9021 13.2155 11.6668 13.3757 11.4003 13.4548C10.9316 13.586 10.4482 13.6574 9.96165 13.6673H9.7619C9.27269 13.6549 8.78708 13.5799 8.3169 13.4442C8.05501 13.3669 7.8233 13.2108 7.65333 12.9971C7.60522 12.9366 7.56272 12.8724 7.52614 12.8051C8.02603 13.0573 8.75388 13.3116 9.70892 13.3613H10.0192ZM5.95326 5.10345C5.95225 5.09843 5.95174 5.09353 5.95174 5.08875C5.95174 4.84438 7.28199 4.27488 9.86174 4.27488C12.4394 4.27488 13.7696 4.8465 13.7696 5.08875C13.7696 5.331 12.4415 5.9005 9.86174 5.9005C7.36385 5.9005 6.03742 5.36856 5.95575 5.11296L5.95617 5.10358L5.95326 5.10345Z" fill="white"/>
</svg>

<svg xmlns="http://www.w3.org/2000/svg" viewBox="0 0 20 20">
  <rect width="100%" height="100%" fill="#069C02"/>
  <path fill="#fff" fill-rule="evenodd" d="M5.43 5.13V5.1c0-.91 2.3-1.34 4.43-1.34s4.42.42 4.43 1.33l.01.1.01.48c.74.04 2.2.25 2.41 1.37.16.83.04 1.58-.35 2.17 1.39.7 2.13 1.61 2.13 2.6 0 2.17-3.73 3.88-8.5 3.88s-8.5-1.7-8.5-3.89c0-1.38 1.5-2.6 4-3.3a27.3 27.3 0 0 1-.07-3.36Zm.5.62c.8.46 2.42.68 3.93.68 1.53 0 3.14-.22 3.93-.68.03 1.86-.14 5.28-1.14 6.13a4.34 4.34 0 0 1-2.9.96c-1.73-.1-2.63-.92-2.68-.97-.98-.84-1.15-4.25-1.13-6.12Zm9.78 4.16c.12-.09.23-.18.33-.29 1.25.62 1.94 1.38 1.94 2.17 0 1.82-3.66 3.36-7.98 3.36s-7.98-1.54-7.97-3.36c0-1.1 1.34-2.15 3.53-2.78.12.94.31 1.87.63 2.53-.79.38-1.22.87-1.22 1.4 0 1.22 2.16 2.13 5.03 2.13s5.03-.9 5.03-2.11c0-.6-.51-1.12-1.45-1.51.09-.2.17-.44.24-.68a4.28 4.28 0 0 0 1.89-.86Zm-2.39 2a2.03 2.03 0 0 1-.45.48 1.86 1.86 0 0 1-1.3 1.54c-.52.15-1.05.24-1.58.25h-.25a6.22 6.22 0 0 1-1.59-.25 1.85 1.85 0 0 1-1.3-1.55 1.84 1.84 0 0 1-.14-.12 1.65 1.65 0 0 1-.25-.27c-.62.29-.97.63-.97.96 0 .75 1.86 1.59 4.51 1.59 2.65 0 4.5-.82 4.5-1.58 0-.37-.43-.75-1.18-1.05Zm1-5.46v-.26c.55.04 1.74.2 1.89.94.19 1-.1 1.83-.82 2.36a3.8 3.8 0 0 1-1.43.71l.08-.37c.41-.1.8-.28 1.17-.5.65-.4.9-1.03.77-1.93-.06-.34-.35-.9-1.67-.95Zm-.15 2.49-.04.32c.16-.06.32-.12.48-.2l-.44-.12Zm.05-.53c.32.08.64.18.96.29.28-.28.37-.67.28-1.22-.04-.3-.47-.49-1.16-.51-.01.44-.04.94-.08 1.44Zm-4.2 4.95c.95-.05 1.68-.3 2.18-.55a1.35 1.35 0 0 1-.8.64c-.47.14-.95.2-1.44.22h-.2a5.74 5.74 0 0 1-1.44-.23 1.33 1.33 0 0 1-.8-.63c.5.25 1.23.5 2.19.55h.3ZM5.95 5.1V5.1c0-.25 1.33-.82 3.91-.82s3.91.58 3.91.82-1.33.81-3.9.81c-2.5 0-3.83-.53-3.91-.79Z" clip-rule="evenodd"/>
</svg>
